X:139
M: C|
L:1/8
K:D
edcB A2 Bc | d2 cB c2B2 | A2 AA A2::(cd) | e3f ecAc | ecaf ecAc |
dfdB cec^A | B2 BB B2 (Bc) | d3B AFDF | GABc d2 cB | {B}A2 (GF) EGFE | D2 DD D2 :|

